public/images/hashed/e4be729c89eea1cf99f9dc3da60cce8a.svg

<svg xmlns="http://www.w3.org/2000/svg" width="80" height="80"><defs><linearGradient id="a" x1="0%" x2="100%" y1="100%" y2="0%"><stop offset="0%" stop-color="#2E27AD"/><stop offset="100%" stop-color="#527FFF"/></linearGradient></defs><g fill="none" fill-rule="evenodd"><path fill="url(#a)" d="M0 0h80v80H0z"/><path fill="#FFF" d="m15.414 14 9.293 9.293-1.414 1.414L14 15.414V23h-2V13a1 1 0 0 1 1-1h10v2h-7.586ZM68 13v10h-2v-7.586l-9.293 9.293-1.414-1.414L64.586 14H57v-2h10a1 1 0 0 1 1 1Zm-2 44h2v10a1 1 0 0 1-1 1H57v-2h7.586l-9.293-9.293 1.414-1.414L66 64.586V57Zm-.5-17.787c0-3.319-3.832-6.598-10.25-8.771l.641-1.894C63.268 31.045 67.5 34.932 67.5 39.213c0 4.282-4.232 8.17-11.61 10.666l-.641-1.895c6.419-2.172 10.251-5.45 10.251-8.771Zm-50.944 0c0 3.18 3.587 6.372 9.596 8.54l-.679 1.881c-6.938-2.503-10.917-6.301-10.917-10.421 0-4.119 3.979-7.917 10.917-10.421l.679 1.881c-6.009 2.169-9.596 5.361-9.596 8.54Zm10.151 17.494L15.414 66H23v2H13a1 1 0 0 1-1-1V57h2v7.586l9.293-9.293 1.414 1.414ZM40 31.286c-7.146 0-11-1.846-11-2.6 0-.755 3.854-2.6 11-2.6 7.145 0 11 1.845 11 2.6 0 .754-3.855 2.6-11 2.6Zm.029 7.745C33.187 39.031 29 37.162 29 36.145v-4.861c2.463 1.359 6.832 2.002 11 2.002s8.537-.643 11-2.002v4.861c0 1.018-4.165 2.886-10.971 2.886Zm0 7.636C33.187 46.667 29 44.798 29 43.781v-4.919c2.431 1.429 6.742 2.169 11.029 2.169 4.263 0 8.549-.739 10.971-2.164v4.914c0 1.018-4.165 2.886-10.971 2.886ZM40 53.518c-7.117 0-11-1.913-11-2.896v-4.124c2.431 1.429 6.742 2.169 11.029 2.169 4.263 0 8.549-.738 10.971-2.164v4.119c0 .983-3.883 2.896-11 2.896Zm0-29.432c-6.261 0-13 1.439-13 4.6v21.936c0 3.214 6.54 4.896 13 4.896s13-1.682 13-4.896V28.686c0-3.161-6.739-4.6-13-4.6Z"/></g></svg>

<?xml version="1.0" encoding="UTF-8"?>
<svg width="80px" height="80px" viewBox="0 0 80 80" version="1.1" xmlns="http://www.w3.org/2000/svg" xmlns:xlink="http://www.w3.org/1999/xlink">
    <!-- Generator: Sketch 64 (93537) - https://sketch.com -->
    <title>Icon-Architecture/64/Arch_Amazon-RDS_64</title>
    <desc>Created with Sketch.</desc>
    <defs>
        <linearGradient x1="0%" y1="100%" x2="100%" y2="0%" id="linearGradient-1">
            <stop stop-color="#2E27AD" offset="0%"></stop>
            <stop stop-color="#527FFF" offset="100%"></stop>
        </linearGradient>
    </defs>
    <g id="Icon-Architecture/64/Arch_Amazon-RDS_64" stroke="none" stroke-width="1" fill="none" fill-rule="evenodd">
        <g id="Icon-Architecture-BG/64/Database" fill="url(#linearGradient-1)">
            <rect id="Rectangle" x="0" y="0" width="80" height="80"></rect>
        </g>
        <path d="M15.414,14 L24.707,23.293 L23.293,24.707 L14,15.414 L14,23 L12,23 L12,13 C12,12.448 12.447,12 13,12 L23,12 L23,14 L15.414,14 Z M68,13 L68,23 L66,23 L66,15.414 L56.707,24.707 L55.293,23.293 L64.586,14 L57,14 L57,12 L67,12 C67.553,12 68,12.448 68,13 L68,13 Z M66,57 L68,57 L68,67 C68,67.552 67.553,68 67,68 L57,68 L57,66 L64.586,66 L55.293,56.707 L56.707,55.293 L66,64.586 L66,57 Z M65.5,39.213 C65.5,35.894 61.668,32.615 55.25,30.442 L55.891,28.548 C63.268,31.045 67.5,34.932 67.5,39.213 C67.5,43.495 63.268,47.383 55.89,49.879 L55.249,47.984 C61.668,45.812 65.5,42.534 65.5,39.213 L65.5,39.213 Z M14.556,39.213 C14.556,42.393 18.143,45.585 24.152,47.753 L23.473,49.634 C16.535,47.131 12.556,43.333 12.556,39.213 C12.556,35.094 16.535,31.296 23.473,28.792 L24.152,30.673 C18.143,32.842 14.556,36.034 14.556,39.213 L14.556,39.213 Z M24.707,56.707 L15.414,66 L23,66 L23,68 L13,68 C12.447,68 12,67.552 12,67 L12,57 L14,57 L14,64.586 L23.293,55.293 L24.707,56.707 Z M40,31.286 C32.854,31.286 29,29.44 29,28.686 C29,27.931 32.854,26.086 40,26.086 C47.145,26.086 51,27.931 51,28.686 C51,29.44 47.145,31.286 40,31.286 L40,31.286 Z M40.029,39.031 C33.187,39.031 29,37.162 29,36.145 L29,31.284 C31.463,32.643 35.832,33.286 40,33.286 C44.168,33.286 48.537,32.643 51,31.284 L51,36.145 C51,37.163 46.835,39.031 40.029,39.031 L40.029,39.031 Z M40.029,46.667 C33.187,46.667 29,44.798 29,43.781 L29,38.862 C31.431,40.291 35.742,41.031 40.029,41.031 C44.292,41.031 48.578,40.292 51,38.867 L51,43.781 C51,44.799 46.835,46.667 40.029,46.667 L40.029,46.667 Z M40,53.518 C32.883,53.518 29,51.605 29,50.622 L29,46.498 C31.431,47.927 35.742,48.667 40.029,48.667 C44.292,48.667 48.578,47.929 51,46.503 L51,50.622 C51,51.605 47.117,53.518 40,53.518 L40,53.518 Z M40,24.086 C33.739,24.086 27,25.525 27,28.686 L27,50.622 C27,53.836 33.54,55.518 40,55.518 C46.46,55.518 53,53.836 53,50.622 L53,28.686 C53,25.525 46.261,24.086 40,24.086 L40,24.086 Z" id="Amazon-RDS_Icon_64_Squid" fill="#FFFFFF"></path>
    </g>
</svg>
